**kern	**silbe	**harmony	**phrase	**leadinstrument	**rhyme	**timestamp	**harte
*ICvox	*	*M4/4	*	*	*	*	*M4/4
*VRlead	*	*	*	*	*	*	*
*Hstimme	*	*	*	*	*	*	*
*E:	*	*E:	*	*	*	*	*E:
*M4/4	*	*	*	*	*	*	*
*clefF4	*	*	*	*	*	*	*
r;	.	1r;	.	r	.	0	N.C.
=1	=1	=1	=1	=1	=1	=1	=1
*>Letter>A2	*>Letter>A2	*>Letter>A2	*>Letter>A2	*>Letter>A2	*>Letter>A2	*>Letter>A2	*>Letter>A2
*>Label>Intro	*>Label>Intro	*>Label>Intro	*>Label>Intro	*>Label>Intro	*>Label>Intro	*>Label>Intro	*>Label>Intro
1r	.	1EM	newline	guitar	.	0.395	E:maj
=2	=2	=2	=2	=2	=2	=2	=2
1r	.	2F#mm	.	guitar	.	3.39	F#:min7
.	.	4AM	.	guitar	.	4.887	A:maj
.	.	4BM	.	guitar	.	5.636	B:sus4(b7)
=3	=3	=3	=3	=3	=3	=3	=3
1r	.	1EM	.	guitar	.	6.385	E:maj
=4	=4	=4	=4	=4	=4	=4	=4
2r	.	2F#mm	.	guitar	.	9.38	F#:min7
4r	.	4AM	.	guitar	.	10.877	A:maj
8B	He	4BM	.	guitar	.	11.626	B:sus4(b7)
16B	was	.	.	.	.	.	.
[16B	born	.	.	.	.	.	.
=5	=5	=5	=5	=5	=5	=5	=5
*>Letter>A	*>Letter>A	*>Letter>A	*>Letter>A	*>Letter>A	*>Letter>A	*>Letter>A	*>Letter>A
*>Label>Verse	*>Label>Verse	*>Label>Verse	*>Label>Verse	*>Label>Verse	*>Label>Verse	*>Label>Verse	*>Label>Verse
4B]	_	1EM	newline	voice	.	12.375	E:maj
8B	in	.	.	.	.	.	.
16B	the	.	.	.	.	.	.
[16B	sum	.	.	.	.	.	.
16B]	_	.	.	.	.	.	.
8G#	mer	.	.	.	.	.	.
16r	.	.	.	.	.	.	.
16r	.	.	.	.	.	.	.
16G#	of	.	.	.	.	.	.
8B	his	.	.	.	.	.	.
=6	=6	=6	=6	=6	=6	=6	=6
16B	twen-	2F#mm	.	voice	.	15.39	F#:min7
8G#	-ty	.	.	.	.	.	.
16A	se-	.	.	.	.	.	.
8G#	-venth	.	.	.	.	.	.
[8F#	year	.	.	.	.	.	.
8F#]	_	4DM	.	voice	.	16.898	D:maj
8r	.	.	.	.	.	.	.
8r	.	4BM	.	voice	.	17.651	B:sus4(b7)
16A	co-	.	.	.	.	.	.
16B	-ming	.	.	.	.	.	.
=7	=7	=7	=7	=7	=7	=7	=7
4.B	home	1EM	.	voice	.	18.405	E:maj
16B	to	.	.	.	.	.	.
16B	a	.	.	.	.	.	.
8B	place	.	.	.	.	.	.
8B	he'd	.	.	.	.	.	.
16A	ne-	.	.	.	.	.	.
8.G#	-ver	.	.	.	.	.	.
=8	=8	=8	=8	=8	=8	=8	=8
8A	been	2F#mm	.	voice	.	21.42	F#:min7
16~E	be-	.	.	.	.	.	.
[16E	-fore	.	.	.	A	.	.
8E]	_	.	.	.	.	.	.
8r	.	.	.	.	.	.	.
4r	.	4AM	.	voice	.	22.928	A:maj
8r	.	4BM	.	voice	.	23.682	B:sus4(b7)
16B	He	.	.	.	.	.	.
16B	left	.	.	.	.	.	.
=9	=9	=9	=9	=9	=9	=9	=9
8B	yes-	1EM	newline	voice	.	24.435	E:maj
16B	-ter-	.	.	.	.	.	.
[16B	-day	.	.	.	.	.	.
8B]	_	.	.	.	.	.	.
16B	be-	.	.	.	.	.	.
[16e	-hind	.	.	.	.	.	.
8e]	_	.	.	.	.	.	.
[8c#	him,	.	.	.	.	.	.
16c#]	_	.	.	.	.	.	.
16B	you	.	.	.	.	.	.
8B	might	.	.	.	.	.	.
=10	=10	=10	=10	=10	=10	=10	=10
16B	say	2F#mm	.	voice	.	27.407	F#:min7
8A	he	.	.	.	.	.	.
16A	was	.	.	.	.	.	.
8A	born	.	.	.	.	.	.
16B	a-	.	.	.	.	.	.
16F#	-gain	.	.	.	.	.	.
4r	.	4DM	.	voice	.	28.893	D:maj
8r	.	4BM	.	voice	.	29.636	B:sus4(b7)
8B	you	.	.	.	.	.	.
=11	=11	=11	=11	=11	=11	=11	=11
16B	might	1EM	.	voice	.	30.379	E:maj
8B	say	.	.	.	.	.	.
16B	he	.	.	.	.	.	.
8c#	found	.	.	.	.	.	.
16B	a	.	.	.	.	.	.
[16B	key	.	.	.	.	.	.
8B]	_	.	.	.	.	.	.
16B	for	.	.	.	.	.	.
[16A	ev	.	.	.	.	.	.
8A]	_	.	.	.	.	.	.
16E	'ry	.	.	.	.	.	.
[16E	door	.	.	.	A	.	.
=12	=12	=12	=12	=12	=12	=12	=12
4E]	_	2F#mm	.	voice	.	33.35	F#:min7
4r	.	.	.	.	.	.	.
4r	.	4AM	.	voice	.	34.836	A:maj
8r	.	4BM	.	voice	.	35.579	B:sus4(b7)
16B	When	.	.	.	.	.	.
16B	he	.	.	.	.	.	.
=13	=13	=13	=13	=13	=13	=13	=13
8B	first	1EM	newline	voice	.	36.322	E:maj
8B	came	.	.	.	.	.	.
8B	to	.	.	.	.	.	.
16B	the	.	.	.	.	.	.
[16B	moun	.	.	.	.	.	.
16B]	_	.	.	.	.	.	.
8G#	tains	.	.	.	.	.	.
16r	.	.	.	.	.	.	.
8r	.	.	.	.	.	.	.
8B	his	.	.	.	.	.	.
=14	=14	=14	=14	=14	=14	=14	=14
16B	life	2F#mm	.	voice	.	39.31	F#:min7
16A	_	.	.	.	.	.	.
8A	was	.	.	.	.	.	.
8A	far	.	.	.	.	.	.
16B	a-	.	.	.	.	.	.
[16F#	-way	.	.	.	.	.	.
8F#]	_	4DM	.	voice	.	40.804	D:maj
8r	.	.	.	.	.	.	.
8Aq	_	.	.	.	.	.	.
8B	on	4BM	.	voice	.	41.551	B:sus4(b7)
16B	the	.	.	.	.	.	.
[16B	road	.	.	.	.	.	.
=15	=15	=15	=15	=15	=15	=15	=15
4.B_	_	1EM	.	voice	.	42.298	E:maj
16B]	_	.	.	.	.	.	.
16G#	and	.	.	.	.	.	.
16B	han-	.	.	.	.	.	.
8.B	-ging	.	.	.	.	.	.
16A	by	.	.	.	.	.	.
8G#	a	.	.	.	.	.	.
[16E	song	.	.	.	B	.	.
=16	=16	=16	=16	=16	=16	=16	=16
4.E]	_	2F#mm	.	voice	.	45.287	F#:min7
8r	.	.	.	.	.	.	.
4r	.	4AM	.	voice	.	46.781	A:maj
8r	.	4BM	.	voice	.	47.528	B:sus4(b7)
16B	But	.	.	.	.	.	.
16B	the	.	.	.	.	.	.
=17	=17	=17	=17	=17	=17	=17	=17
8B	string's	1EM	newline	voice	.	48.275	E:maj
8B	al-	.	.	.	.	.	.
16B	-rea-	.	.	.	.	.	.
8c#	-dy	.	.	.	.	.	.
[16e	bro	.	.	.	.	.	.
8e]	_	.	.	.	.	.	.
8Bq	_	.	.	.	.	.	.
[8c#	ken	.	.	.	.	.	.
16c#]	_	.	.	.	.	.	.
16r	.	.	.	.	.	.	.
16B	and	.	.	.	.	.	.
16B	he	.	.	.	.	.	.
=18	=18	=18	=18	=18	=18	=18	=18
16B	does-	2F#mm	.	voice	.	51.249	F#:min7
8A	-n't	.	.	.	.	.	.
16A	r-	.	.	.	.	.	.
16A	-real-	.	.	.	.	.	.
8B	-ly	.	.	.	.	.	.
16F#	care	.	.	.	.	.	.
4r	.	4DM	.	voice	.	52.736	D:maj
16r	.	4BM	.	voice	.	53.479	B:sus4(b7)
16~BB	it	.	.	.	.	.	.
8B	keeps	.	.	.	.	.	.
=19	=19	=19	=19	=19	=19	=19	=19
8B	chan-	1EM	.	voice	.	54.223	E:maj
16G#	-ging	.	.	.	.	.	.
16B	fast	.	.	.	.	.	.
4r	.	.	.	.	.	.	.
16G#	and	.	.	.	.	.	.
8B	it	.	.	.	.	.	.
16A	don't	.	.	.	.	.	.
8G#	last	.	.	.	.	.	.
16E	for	.	.	.	.	.	.
[16E	long	.	.	.	B	.	.
=20	=20	=20	=20	=20	=20	=20	=20
4E]	_	2F#mm	.	voice	.	57.196	F#:min7
4r	.	.	.	.	.	.	.
4.r	.	4AM	.	voice	.	58.683	A:maj
.	.	4BM	.	voice	.	59.427	B:sus4(b7)
16C#	But	.	.	.	.	.	.
16C#	the	.	.	.	.	.	.
=21	=21	=21	=21	=21	=21	=21	=21
*>Letter>B	*>Letter>B	*>Letter>B	*>Letter>B	*>Letter>B	*>Letter>B	*>Letter>B	*>Letter>B
*>Label>Chorus	*>Label>Chorus	*>Label>Chorus	*>Label>Chorus	*>Label>Chorus	*>Label>Chorus	*>Label>Chorus	*>Label>Chorus
8Bq	_	.	.	.	.	.	.
8c#	Co-	2AM	newline	voice	.	60.17	A:maj
16c#	-lo-	.	.	.	.	.	.
[16c#	-ra	.	.	.	.	.	.
16c#]	_	.	.	.	.	.	.
8.c#	do	.	.	.	.	.	.
8c#q	_	.	.	.	.	.	.
8B	Ro-	2BM	.	voice	.	61.636	B:maj
16B	-cky	.	.	.	.	.	.
[16B	Moun	.	.	.	.	.	.
16B]	_	.	.	.	.	.	.
16G#	tain	.	.	.	.	.	.
[8B	high	.	.	.	C	.	.
=22	=22	=22	=22	=22	=22	=22	=22
2B]	_	1EM	.	voice	.	63.103	E:maj
4r	.	.	.	.	.	.	.
8r	.	.	.	.	.	.	.
8Bq	_	.	.	.	.	.	.
8c#	I've	.	.	.	.	.	.
=23	=23	=23	=23	=23	=23	=23	=23
16c#	seen	2AM	.	voice	.	66.035	A:maj
8.c#	it	.	.	.	.	.	.
8c#	rai-	.	.	.	.	.	.
8B	-ning	.	.	.	.	.	.
8B	fi-	2BM	.	voice	.	67.502	B:maj
8B	-re	.	.	.	.	.	.
16B	in	.	.	.	.	.	.
16A	_	.	.	.	.	.	.
16A	the	.	.	.	.	.	.
[16G#	sky	.	.	.	C	.	.
=24	=24	=24	=24	=24	=24	=24	=24
2G#]	_	1EM	.	voice	.	68.968	E:maj
4.r	.	.	.	.	.	.	.
16r	.	.	.	.	.	.	.
16AA	The	.	.	.	.	.	.
=25	=25	=25	=25	=25	=25	=25	=25
16B	sha-	2AM	newline	voice	.	71.901	A:maj
8.c#	-dow	.	.	.	.	.	.
8c#	from	.	.	.	.	.	.
16c#	the	.	.	.	.	.	.
16c#	star	.	.	.	.	.	.
8d#	_	2BM	.	voice	.	73.394	B:maj
16d#Q	_	.	.	.	.	.	.
8c#	light	.	.	.	C	.	.
8r	.	.	.	.	.	.	.
16G#	is	.	.	.	.	.	.
[16B	sof	.	.	.	.	.	.
=26	=26	=26	=26	=26	=26	=26	=26
*M2/4	*	*M2/4	*M2/4	*M2/4	*	*M2/4	*M2/4
16B]	_	2EM	.	voice	.	74.888	E:maj
16B	ter	.	.	.	.	.	.
16B	than	.	.	.	.	.	.
16B	a	.	.	.	.	.	.
8c#	lul-	.	.	.	.	.	.
16d#	-la-	.	.	.	.	.	.
16d#Q	_	.	.	.	.	.	.
[16e	-by	.	.	.	C	.	.
=27	=27	=27	=27	=27	=27	=27	=27
*M4/4	*	*M4/4	*M4/4	*M4/4	*	*M4/4	*M4/4
1e_	_	1AM	.	voice	.	76.381	A:maj
=28	=28	=28	=28	=28	=28	=28	=28
2e]	_	2.AM	.	voice	.	79.369	A:maj
8r	.	.	.	.	.	.	.
16e	Ro-	.	.	.	.	.	.
16e	-cky	.	.	.	.	.	.
8c#	Moun-	4BM	.	voice	.	81.609	B:sus4(b7)
16G#	-tain	.	.	.	.	.	.
[16B	High	.	.	.	C	.	.
=29	=29	=29	=29	=29	=29	=29	=29
*>Letter>A2	*>Letter>A2	*>Letter>A2	*>Letter>A2	*>Letter>A2	*>Letter>A2	*>Letter>A2	*>Letter>A2
*>Label>Interlude	*>Label>Interlude	*>Label>Interlude	*>Label>Interlude	*>Label>Interlude	*>Label>Interlude	*>Label>Interlude	*>Label>Interlude
2.B_	_	1EM	newline	voice	.	82.356	E:maj
8B]	_	.	.	.	.	.	.
8r	.	.	.	.	.	.	.
=30	=30	=30	=30	=30	=30	=30	=30
2r	.	2F#mm	.	voice	.	85.293	F#:min7
8r	.	4AM	.	voice	.	86.762	A:maj
16c#	Ro-	.	.	.	.	.	.
16c#	-cky	.	.	.	.	.	.
8c#	Moun-	4BM	.	voice	.	87.497	B:sus4(b7)
8G#	-tain	.	.	.	.	.	.
=31	=31	=31	=31	=31	=31	=31	=31
[2B	High	1EM	.	voice	C	88.231	E:maj
8B]	_	.	.	.	.	.	.
8r	.	.	.	.	.	.	.
4r	.	.	.	.	.	.	.
=32	=32	=32	=32	=32	=32	=32	=32
2r	.	2F#mm	.	voice	.	91.169	F#:min7
4r	.	4AM	.	voice	.	92.638	A:maj
8r	.	4BM	.	voice	.	93.373	B:sus4(b7)
16B	He	.	.	.	.	.	.
16B	c-	.	.	.	.	.	.
=33	=33	=33	=33	=33	=33	=33	=33
*>Letter>A	*>Letter>A	*>Letter>A	*>Letter>A	*>Letter>A	*>Letter>A	*>Letter>A	*>Letter>A
*>Label>Verse	*>Label>Verse	*>Label>Verse	*>Label>Verse	*>Label>Verse	*>Label>Verse	*>Label>Verse	*>Label>Verse
8.B	-limbed	1EM	newline	voice	.	94.107	E:maj
16B	Ca-	.	.	.	.	.	.
8B	-the-	.	.	.	.	.	.
16B	-dral	.	.	.	.	.	.
[16B	Moun	.	.	.	.	.	.
16B]	_	.	.	.	.	.	.
8G#	tains	.	.	.	.	.	.
16r	.	.	.	.	.	.	.
16r	.	.	.	.	.	.	.
16G#	he	.	.	.	.	.	.
8B	saw	.	.	.	.	.	.
=34	=34	=34	=34	=34	=34	=34	=34
8B	sil-	2F#mm	.	voice	.	97.029	F#:min7
16~G#	-ver	.	.	.	.	.	.
[16F#	clouds	.	.	.	.	.	.
8F#]	_	.	.	.	.	.	.
16E	be-	.	.	.	.	.	.
[16F#	-low	.	.	.	.	.	.
8F#]	_	4DM	.	voice	.	98.49	D:maj
8r	.	.	.	.	.	.	.
8r	.	4BM	.	voice	.	99.221	B:sus4(b7)
8A	saw	.	.	.	.	.	.
=35	=35	=35	=35	=35	=35	=35	=35
16B	ev-	1EM	.	voice	.	99.951	E:maj
16B	-'ry-	.	.	.	.	.	.
[8B	-thing	.	.	.	.	.	.
8B]	_	.	.	.	.	.	.
8B	as	.	.	.	.	.	.
8.B	far	.	.	.	.	.	.
16B	as	.	.	.	.	.	.
16A	you	.	.	.	.	.	.
8.G#	can	.	.	.	.	.	.
=36	=36	=36	=36	=36	=36	=36	=36
4E	see	2F#mm	.	voice	D	102.874	F#:min7
4r	.	.	.	.	.	.	.
4r	.	4AM	.	voice	.	104.335	A:maj
8r	.	4BM	.	voice	.	105.065	B:sus4(b7)
16B	And	.	.	.	.	.	.
16B	they	.	.	.	.	.	.
=37	=37	=37	=37	=37	=37	=37	=37
8B	say	1EM	newline	voice	.	105.796	E:maj
16B	that	.	.	.	.	.	.
[16B	he	.	.	.	.	.	.
16B]	_	.	.	.	.	.	.
8c#	got	.	.	.	.	.	.
16c#Q	_	.	.	.	.	.	.
[16e	cra	.	.	.	.	.	.
8e]	_	.	.	.	.	.	.
16c#	zy	.	.	.	.	.	.
16B	once	.	.	.	.	.	.
4r	.	.	.	.	.	.	.
=38	=38	=38	=38	=38	=38	=38	=38
8B	tried	2F#mm	.	voice	.	108.711	F#:min7
16A	to	.	.	.	.	.	.
[16A	touch	.	.	.	.	.	.
8A]	_	.	.	.	.	.	.
16G#	the	.	.	.	.	.	.
16F#	sun	.	.	.	.	.	.
4r	.	4DM	.	voice	.	110.169	D:maj
8r	.	4BM	.	voice	.	110.898	B:sus4(b7)
16B	and	.	.	.	.	.	.
16B	he	.	.	.	.	.	.
=39	=39	=39	=39	=39	=39	=39	=39
8B	lost	1EM	.	voice	.	111.627	E:maj
16B	a	.	.	.	.	.	.
[16B	friend,	.	.	.	.	.	.
8B]	_	.	.	.	.	.	.
8B	but	.	.	.	.	.	.
8B	kept	.	.	.	.	.	.
8B	the	.	.	.	.	.	.
16A	me-	.	.	.	.	.	.
8G#	-mo-	.	.	.	.	.	.
[16E	-ry	.	.	.	D	.	.
=40	=40	=40	=40	=40	=40	=40	=40
2E]	_	2F#mm	.	voice	.	114.543	F#:min7
4r	.	4AM	.	voice	.	116	A:maj
8r	.	4BM	.	voice	.	116.729	B:sus4(b7)
16B	Now	.	.	.	.	.	.
16B	he	.	.	.	.	.	.
=41	=41	=41	=41	=41	=41	=41	=41
8B	walks	1EM	newline	voice	.	117.458	E:maj
8B	in	.	.	.	.	.	.
16B	qui-	.	.	.	.	.	.
8.B	-et	.	.	.	.	.	.
16B	so-	.	.	.	.	.	.
16B	-li-	.	.	.	.	.	.
[8B	-tude,	.	.	.	.	.	.
8B]	_	.	.	.	.	.	.
16B	the	.	.	.	.	.	.
[16B	fo	.	.	.	.	.	.
=42	=42	=42	=42	=42	=42	=42	=42
8B]	_	2F#mm	.	voice	.	120.403	F#:min7
8A	rests	.	.	.	.	.	.
16A	and	.	.	.	.	.	.
16B	the	.	.	.	.	.	.
8F#	streams	.	.	.	.	.	.
4r	.	4DM	.	voice	.	121.876	D:maj
16B	see-	4BM	.	voice	.	122.612	B:sus4(b7)
8.B	-king	.	.	.	.	.	.
=43	=43	=43	=43	=43	=43	=43	=43
4B	grace	1EM	.	voice	.	123.348	E:maj
8r	.	.	.	.	.	.	.
16B	in	.	.	.	.	.	.
[16B	ev	.	.	.	.	.	.
16B]	_	.	.	.	.	.	.
8.B	'ry	.	.	.	.	.	.
16A	step	.	.	.	.	.	.
16G#	_	.	.	.	.	.	.
16G#	he	.	.	.	.	.	.
16E	takes	.	.	.	E	.	.
=44	=44	=44	=44	=44	=44	=44	=44
2r	.	2F#mm	.	voice	.	126.293	F#:min7
4r	.	4AM	.	voice	.	127.766	A:maj
8r	.	4BM	.	voice	.	128.502	B:sus4(b7)
8B	His	.	.	.	.	.	.
=45	=45	=45	=45	=45	=45	=45	=45
8B	sight	1EM	newline	voice	.	129.238	E:maj
8B	has	.	.	.	.	.	.
16B	turned	.	.	.	.	.	.
8c#	in-	.	.	.	.	.	.
[16e	-side	.	.	.	.	.	.
8e]	_	.	.	.	.	.	.
8c#	him-	.	.	.	.	.	.
8.B	-self,	.	.	.	.	.	.
16B	to	.	.	.	.	.	.
=46	=46	=46	=46	=46	=46	=46	=46
6B	try	2F#mm	.	voice	.	132.171	F#:min7
12A	and	.	.	.	.	.	.
12A	un-	.	.	.	.	.	.
12G#	-der-	.	.	.	.	.	.
12F#	-stand	.	.	.	.	.	.
4r	.	4DM	.	voice	.	133.637	D:maj
8r	.	4BM	.	voice	.	134.37	B:sus4(b7)
16B	the	.	.	.	.	.	.
16B	se-	.	.	.	.	.	.
=47	=47	=47	=47	=47	=47	=47	=47
16B	-re-	1EM	.	voice	.	135.104	E:maj
16B	-ni-	.	.	.	.	.	.
4B	-ty	.	.	.	.	.	.
16B	of	.	.	.	.	.	.
16B	a	.	.	.	.	.	.
8B	clear	.	.	.	.	.	.
8B	blue	.	.	.	.	.	.
16A	moun	.	.	.	.	.	.
16G#	_	.	.	.	.	.	.
8E	tain	.	.	.	.	.	.
=48	=48	=48	=48	=48	=48	=48	=48
2E	lake	2F#mm	.	voice	E	138.036	F#:min7
4r	.	4AM	.	voice	.	139.503	A:maj
8.r	.	4BM	.	voice	.	140.236	B:sus4(b7)
16E	The	.	.	.	.	.	.
=49	=49	=49	=49	=49	=49	=49	=49
*>Letter>B	*>Letter>B	*>Letter>B	*>Letter>B	*>Letter>B	*>Letter>B	*>Letter>B	*>Letter>B
*>Label>Chorus	*>Label>Chorus	*>Label>Chorus	*>Label>Chorus	*>Label>Chorus	*>Label>Chorus	*>Label>Chorus	*>Label>Chorus
16BQ	_	.	.	.	.	.	.
8c#	Co-	2AM	newline	voice	.	140.969	A:maj
16c#	-lo-	.	.	.	.	.	.
[16c#	-ra	.	.	.	.	.	.
16c#]	_	.	.	.	.	.	.
8.c#	do	.	.	.	.	.	.
8c#q	_	.	.	.	.	.	.
8B	Ro-	2BM	.	voice	.	142.424	B:maj
16B	-cky	.	.	.	.	.	.
[16B	Moun	.	.	.	.	.	.
16B]	_	.	.	.	.	.	.
16G#	tain	.	.	.	.	.	.
16BQ	_	.	.	.	.	.	.
16c#Q	_	.	.	.	.	.	.
[8B	High	.	.	.	C	.	.
=50	=50	=50	=50	=50	=50	=50	=50
2B_	_	1EM	.	voice	.	143.878	E:maj
8B]	_	.	.	.	.	.	.
8r	.	.	.	.	.	.	.
8r	.	.	.	.	.	.	.
8c#	I've	.	.	.	.	.	.
=51	=51	=51	=51	=51	=51	=51	=51
16c#	seen	2AM	.	voice	.	146.788	A:maj
8.c#	it	.	.	.	.	.	.
16c#Q	_	.	.	.	.	.	.
8B	rain-	.	.	.	.	.	.
8B	-ing	.	.	.	.	.	.
8B	fi-	2BM	.	voice	.	148.243	B:maj
8B	-re	.	.	.	.	.	.
16B	in	.	.	.	.	.	.
8A	the	.	.	.	.	.	.
[16G#	sky	.	.	.	C	.	.
=52	=52	=52	=52	=52	=52	=52	=52
2G#]	_	1EM	.	voice	.	149.698	E:maj
4r	.	.	.	.	.	.	.
8r	.	.	.	.	.	.	.
8B	He	.	.	.	.	.	.
=53	=53	=53	=53	=53	=53	=53	=53
8c#	talked	2AM	newline	voice	.	152.607	A:maj
16B	to	.	.	.	.	.	.
[16c#	God	.	.	.	.	.	.
8c#]	_	.	.	.	.	.	.
16r	.	.	.	.	.	.	.
16~E	and	.	.	.	.	.	.
16c#	lis-	2BM	.	voice	.	154.076	B:maj
8.d#	-tened	.	.	.	.	.	.
8d#	to	.	.	.	.	.	.
16c#	the	.	.	.	.	.	.
[16B	ca	.	.	.	.	.	.
=54	=54	=54	=54	=54	=54	=54	=54
*M2/4	*	*M2/4	*M2/4	*M2/4	*	*M2/4	*M2/4
8.B]	_	2EM	.	voice	.	155.546	E:maj
16B	su-	.	.	.	.	.	.
8c#	-al	.	.	.	.	.	.
8d#	re-	.	.	.	.	.	.
=55	=55	=55	=55	=55	=55	=55	=55
*M4/4	*	*M4/4	*M4/4	*M4/4	*	*M4/4	*M4/4
[1e	-ply	1AM	.	voice	C	157.015	A:maj
=56	=56	=56	=56	=56	=56	=56	=56
2e]	_	2.AM	.	voice	.	159.953	A:maj
8r	.	.	.	.	.	.	.
16e	Ro-	.	.	.	.	.	.
16e	-cky	.	.	.	.	.	.
8c#	Moun-	4BM	.	voice	.	162.157	B:sus4(b7)
16G#	-tain	.	.	.	.	.	.
[16B	High	.	.	.	C	.	.
=57	=57	=57	=57	=57	=57	=57	=57
*>Letter>A2	*>Letter>A2	*>Letter>A2	*>Letter>A2	*>Letter>A2	*>Letter>A2	*>Letter>A2	*>Letter>A2
*>Label>Interlude	*>Label>Interlude	*>Label>Interlude	*>Label>Interlude	*>Label>Interlude	*>Label>Interlude	*>Label>Interlude	*>Label>Interlude
2.B]	_	1EM	newline	voice	.	162.892	E:maj
4r	.	.	.	.	.	.	.
=58	=58	=58	=58	=58	=58	=58	=58
2r	.	2F#mm	.	voice	.	165.82	F#:min7
8r	.	4AM	.	voice	.	167.285	A:maj
16c#	Ro-	.	.	.	.	.	.
16c#	-cky	.	.	.	.	.	.
8c#	Moun-	4BM	.	voice	.	168.017	B:sus4(b7)
8G#	-tain	.	.	.	.	.	.
=59	=59	=59	=59	=59	=59	=59	=59
[2B	High	1EM	.	voice	C	168.749	E:maj
16B]	_	.	.	.	.	.	.
16G#	_	.	.	.	.	.	.
8r	.	.	.	.	.	.	.
4r	.	.	.	.	.	.	.
=60	=60	=60	=60	=60	=60	=60	=60
2r	.	2F#mm	.	voice	.	171.678	F#:min7
4r	.	4AM	.	voice	.	173.142	A:maj
8r	.	4BM	.	voice	.	173.874	B:sus4(b7)
16B	Now	.	.	.	.	.	.
16B	his	.	.	.	.	.	.
=61	=61	=61	=61	=61	=61	=61	=61
*>Letter>A	*>Letter>A	*>Letter>A	*>Letter>A	*>Letter>A	*>Letter>A	*>Letter>A	*>Letter>A
*>Label>Verse	*>Label>Verse	*>Label>Verse	*>Label>Verse	*>Label>Verse	*>Label>Verse	*>Label>Verse	*>Label>Verse
8B	life	1EM	newline	voice	.	174.606	E:maj
8B	is	.	.	.	.	.	.
16B	full	.	.	.	.	.	.
16B	of	.	.	.	.	.	.
8B	won-	.	.	.	.	.	.
8G#	-der	.	.	.	.	.	.
8r	.	.	.	.	.	.	.
8r	.	.	.	.	.	.	.
16B	but	.	.	.	.	.	.
16B	his	.	.	.	.	.	.
=62	=62	=62	=62	=62	=62	=62	=62
8B	heart	2F#mm	.	voice	.	177.558	F#:min7
16A	still	.	.	.	.	.	.
[16A	knows	.	.	.	.	.	.
8A]	_	.	.	.	.	.	.
16B	some	.	.	.	.	.	.
[16F#	fear	.	.	.	.	.	.
8F#]	_	4DM	.	voice	.	179.033	D:maj
8r	.	.	.	.	.	.	.
8r	.	4BM	.	voice	.	179.771	B:sus4(b7)
16A	of	.	.	.	.	.	.
16A	a	.	.	.	.	.	.
=63	=63	=63	=63	=63	=63	=63	=63
16B	sim-	1EM	.	voice	.	180.509	E:maj
8B	-ple	.	.	.	.	.	.
[16B	thing	.	.	.	.	.	.
8.B]	_	.	.	.	.	.	.
16B	he	.	.	.	.	.	.
16B	can-	.	.	.	.	.	.
8.B	-not	.	.	.	.	.	.
16A	com	.	.	.	.	.	.
16G#	_	.	.	.	.	.	.
16G#	pre-	.	.	.	.	.	.
16E	-hend	.	.	.	F	.	.
=64	=64	=64	=64	=64	=64	=64	=64
2r	.	2F#mm	.	voice	.	183.46	F#:min7
4r	.	4AM	.	voice	.	184.936	A:maj
8r	.	4BM	.	voice	.	185.674	B:sus4(b7)
16B	Why	.	.	.	.	.	.
16B	they	.	.	.	.	.	.
=65	=65	=65	=65	=65	=65	=65	=65
8B	try	1EM	newline	voice	.	186.412	E:maj
16B	to	.	.	.	.	.	.
[16B	tear	.	.	.	.	.	.
8B]	_	.	.	.	.	.	.
16c#	the	.	.	.	.	.	.
[16e	moun	.	.	.	.	.	.
16e]	_	.	.	.	.	.	.
8c#	tains	.	.	.	.	.	.
[16B	down,	.	.	.	.	.	.
8.B]	_	.	.	.	.	.	.
16B	to	.	.	.	.	.	.
=66	=66	=66	=66	=66	=66	=66	=66
16B	bring	2F#mm	.	voice	.	189.359	F#:min7
16A	in	.	.	.	.	.	.
16A	a	.	.	.	.	.	.
16A	cou-	.	.	.	.	.	.
8B	-ple	.	.	.	.	.	.
8F#	more	.	.	.	.	.	.
4r	.	4DM	.	voice	.	190.832	D:maj
8r	.	4BM	.	voice	.	191.569	B:sus4(b7)
8B	more	.	.	.	.	.	.
=67	=67	=67	=67	=67	=67	=67	=67
16B	peo-	1EM	.	voice	.	192.306	E:maj
8.B	-ple	.	.	.	.	.	.
8r	.	.	.	.	.	.	.
8B	more	.	.	.	.	.	.
8.B	scars	.	.	.	.	.	.
16B	u-	.	.	.	.	.	.
16A	-pon	.	.	.	.	.	.
16G#	_	.	.	.	.	.	.
16E	the	.	.	.	.	.	.
[16E	land	.	.	.	H	.	.
=68	=68	=68	=68	=68	=68	=68	=68
4E]	_	2F#mm	.	voice	.	195.253	F#:min7
4r	.	.	.	.	.	.	.
4r	.	4AM	.	voice	.	196.726	A:maj
8r	.	4BM	.	voice	.	197.463	B:sus4(b7)
16E	And	.	.	.	.	.	.
16E	the	.	.	.	.	.	.
=69	=69	=69	=69	=69	=69	=69	=69
*>Letter>B2	*>Letter>B2	*>Letter>B2	*>Letter>B2	*>Letter>B2	*>Letter>B2	*>Letter>B2	*>Letter>B2
*>Label>Chorus	*>Label>Chorus	*>Label>Chorus	*>Label>Chorus	*>Label>Chorus	*>Label>Chorus	*>Label>Chorus	*>Label>Chorus
16BQ	_	.	.	.	.	.	.
8c#	Co-	2AM	newline	voice	.	198.2	A:maj
16c#	-lo-	.	.	.	.	.	.
[16c#	-ra	.	.	.	.	.	.
16c#]	_	.	.	.	.	.	.
8.c#	do	.	.	.	.	.	.
8c#	Ro-	2BM	.	voice	.	199.669	B:maj
16B	-cky	.	.	.	.	.	.
[16B	Moun	.	.	.	.	.	.
16B]	_	.	.	.	.	.	.
16G#	tain	.	.	.	.	.	.
16AQ	_	.	.	.	.	.	.
[8B	High	.	.	.	C	.	.
=70	=70	=70	=70	=70	=70	=70	=70
2B]	_	1EM	.	voice	.	201.138	E:maj
4r	.	.	.	.	.	.	.
8r	.	.	.	.	.	.	.
8c#	I've	.	.	.	.	.	.
=71	=71	=71	=71	=71	=71	=71	=71
16c#	seen	2AM	.	voice	.	204.075	A:maj
8.c#	it	.	.	.	.	.	.
16c#Q	_	.	.	.	.	.	.
8B	rain-	.	.	.	.	.	.
8B	-ing	.	.	.	.	.	.
8B	fi-	2BM	.	voice	.	205.544	B:maj
8B	-re	.	.	.	.	.	.
16B	in	.	.	.	.	.	.
8A	the	.	.	.	.	.	.
[16G#	sky	.	.	.	C	.	.
=72	=72	=72	=72	=72	=72	=72	=72
4.G#]	_	1EM	.	voice	.	207.013	E:maj
8r	.	.	.	.	.	.	.
4r	.	.	.	.	.	.	.
8.r	.	.	.	.	.	.	.
16~E	He	.	.	.	.	.	.
=73	=73	=73	=73	=73	=73	=73	=73
16B	knows	2AM	newline	voice	.	209.951	A:maj
8c#	he'd	.	.	.	.	.	.
[16c#	be	.	.	.	.	.	.
8c#]	_	.	.	.	.	.	.
16c#	a	.	.	.	.	.	.
[16d#	poor	.	.	.	.	.	.
16d#]	_	2BM	.	voice	.	211.457	B:maj
16d#	er	.	.	.	.	.	.
8c#	man	.	.	.	.	.	.
8r	.	.	.	.	.	.	.
16G#	if	.	.	.	.	.	.
16B	he	.	.	.	.	.	.
=74	=74	=74	=74	=74	=74	=74	=74
*M2/4	*	*M2/4	*M2/4	*M2/4	*	*M2/4	*M2/4
16B	ne-	2EM	.	voice	.	212.962	E:maj
16B	-ver	.	.	.	.	.	.
16B	saw	.	.	.	.	.	.
16B	an	.	.	.	.	.	.
16c#	ea-	.	.	.	.	.	.
8.d#	-gle	.	.	.	.	.	.
=75	=75	=75	=75	=75	=75	=75	=75
*M4/4	*	*M4/4	*M4/4	*M4/4	*	*M4/4	*M4/4
[1e	fly	1AM	.	voice	C	214.467	A:maj
=76	=76	=76	=76	=76	=76	=76	=76
2e]	_	2.AM	.	voice	.	217.478	A:maj
8r	.	.	.	.	.	.	.
16e	Ro-	.	.	.	.	.	.
16e	-cky	.	.	.	.	.	.
8c#	Moun-	4BM	.	voice	.	219.736	B:sus4(b7)
16G#	-tain	.	.	.	.	.	.
[16B	High	.	.	.	C	.	.
=77	=77	=77	=77	=77	=77	=77	=77
2.B]	_	1EM	newline	voice	.	220.489	E:maj
8r	.	.	.	.	.	.	.
16c#	It's	.	.	.	.	.	.
16d#	a	.	.	.	.	.	.
=78	=78	=78	=78	=78	=78	=78	=78
8e	Co-	2AM	newline	voice	.	223.194	A:maj
16e	-lo-	.	.	.	.	.	.
[16e	-ra	.	.	.	.	.	.
16e]	_	.	.	.	.	.	.
8e	do	.	.	.	.	.	.
16d#	_	.	.	.	.	.	.
16d#	Ro	2BM	.	voice	.	224.647	B:maj
16c#	_	.	.	.	.	.	.
16c#	cky	.	.	.	.	.	.
[16c#	Moun	.	.	.	.	.	.
8c#]	_	.	.	.	.	.	.
16B	tain	.	.	.	.	.	.
16BQ	_	.	.	.	.	.	.
16c#Q	_	.	.	.	.	.	.
[16B	High	.	.	.	C	.	.
=79	=79	=79	=79	=79	=79	=79	=79
2B_	_	1EM	.	voice	.	226.1	E:maj
8B]	_	.	.	.	.	.	.
8r	.	.	.	.	.	.	.
16r	.	.	.	.	.	.	.
8.e	I've	.	.	.	.	.	.
=80	=80	=80	=80	=80	=80	=80	=80
16e	seen	2AM	.	voice	.	229.007	A:maj
8.e	it	.	.	.	.	.	.
16e	rain-	.	.	.	.	.	.
8e	-ing	.	.	.	.	.	.
[16d#	fire	.	.	.	.	.	.
4d#]	_	2BM	.	voice	.	230.46	B:maj
16B	in	.	.	.	.	.	.
8B	the	.	.	.	.	.	.
16B	sky	.	.	.	C	.	.
=81	=81	=81	=81	=81	=81	=81	=81
8G#	_	1EM	.	voice	.	231.914	E:maj
8r	.	.	.	.	.	.	.
4r	.	.	.	.	.	.	.
2r	.	.	.	.	.	.	.
=82	=82	=82	=82	=82	=82	=82	=82
8c#	Friends	2AM	newline	voice	.	234.82	A:maj
16c#	a-	.	.	.	.	.	.
[16c#	-round	.	.	.	.	.	.
8c#]	_	.	.	.	.	.	.
16c#	the	.	.	.	.	.	.
16d#	camp	.	.	.	.	.	.
16r	.	2BM	.	voice	.	236.292	B:maj
16d#	fire	.	.	.	.	.	.
16e	_	.	.	.	.	.	.
[16f#	_	.	.	.	.	.	.
8f#]	_	.	.	.	.	.	.
8r	.	.	.	.	.	.	.
=83	=83	=83	=83	=83	=83	=83	=83
*M2/4	*	*M2/4	*M2/4	*M2/4	*	*M2/4	*M2/4
8e	Ev-	2EM	.	voice	.	237.764	E:maj
16e	-'ry-	.	.	.	.	.	.
16eQ	_	.	.	.	.	.	.
[16c#	-bo	.	.	.	.	.	.
16c#]	_	.	.	.	.	.	.
8.B	dy's	.	.	.	.	.	.
=84	=84	=84	=84	=84	=84	=84	=84
*M4/4	*	*M4/4	*M4/4	*M4/4	*	*M4/4	*M4/4
16c#	high	1AM	.	voice	C	239.235	A:maj
[8.e	_	.	.	.	.	.	.
2.e_	_	.	.	.	.	.	.
=85	=85	=85	=85	=85	=85	=85	=85
4.e]	_	2.AM	.	voice	.	242.178	A:maj
8r	.	.	.	.	.	.	.
8r	.	.	.	.	.	.	.
16e	Ro-	.	.	.	.	.	.
16e	-cky	.	.	.	.	.	.
8c#	Moun-	4BM	.	voice	.	244.385	B:sus4(b7)
16G#	-tain	.	.	.	.	.	.
[16B	High	.	.	.	C	.	.
=86	=86	=86	=86	=86	=86	=86	=86
*>Letter>A2	*>Letter>A2	*>Letter>A2	*>Letter>A2	*>Letter>A2	*>Letter>A2	*>Letter>A2	*>Letter>A2
*>Label>Outro	*>Label>Outro	*>Label>Outro	*>Label>Outro	*>Label>Outro	*>Label>Outro	*>Label>Outro	*>Label>Outro
2.B]	_	1EM	newline	voice	.	245.121	E:maj
4r	.	.	.	.	.	.	.
=87	=87	=87	=87	=87	=87	=87	=87
2r	.	2F#mm	.	voice	.	248.039	F#:min7
8r	.	4AM	.	voice	.	249.498	A:maj
16c#	Ro-	.	.	.	.	.	.
16c#	-cky	.	.	.	.	.	.
8c#	Moun-	4BM	.	voice	.	250.227	B:sus4(b7)
16G#	-tain	.	.	.	.	.	.
[16B	High	.	.	.	C	.	.
=88	=88	=88	=88	=88	=88	=88	=88
1B_	_	1EM	.	voice	.	250.956	E:maj
=89	=89	=89	=89	=89	=89	=89	=89
2B]	_	2F#mm	.	voice	.	253.874	F#:min7
8r	.	4AM	.	voice	.	255.333	A:maj
16c#	h	.	.	.	.	.	.
16c#	cky	.	.	.	.	.	.
16c#	Moun	4BM	.	voice	.	256.062	B:sus4(b7)
16B	_	.	.	.	.	.	.
16A	tain	.	.	.	.	.	.
[16G#	High	.	.	.	C	.	.
=90	=90	=90	=90	=90	=90	=90	=90
2.G#]	_	1EM	newline	voice	.	256.792	E:maj
4r	.	.	.	.	.	.	.
=91	=91	=91	=91	=91	=91	=91	=91
2r	.	2F#mm	.	voice	.	259.701	F#:min7
8r	.	4AM	.	voice	.	261.155	A:maj
16c#	Ro-	.	.	.	.	.	.
16c#	-cky	.	.	.	.	.	.
8c#	Moun-	4BM	.	voice	.	261.882	B:sus4(b7)
8B	-tain	.	.	.	.	.	.
=92	=92	=92	=92	=92	=92	=92	=92
4B	High	1EM	.	voice	C	262.61	E:maj
[2.b	_	.	.	.	.	.	.
=93	=93	=93	=93	=93	=93	=93	=93
2b]	_	2F#mm	.	voice	.	265.519	F#:min7
8r	.	4AM	.	voice	.	266.973	A:maj
16c#	Ro-	.	.	.	.	.	.
16c#	-cky	.	.	.	.	.	.
8c#	Moun-	4BM	.	voice	.	267.701	B:sus4(b7)
16G#	-tain	.	.	.	.	.	.
[16B	High	.	.	.	C	.	.
=94	=94	=94	=94	=94	=94	=94	=94
*>Label>>Fadeout	*>Label>>Fadeout	*>Label>>Fadeout	*>Label>>Fadeout	*>Label>>Fadeout	*>Label>>Fadeout	*>Label>>Fadeout	*>Label>>Fadeout
1B]	_	1EM	newline	voice	.	268.428	E:maj
=95	=95	=95	=95	=95	=95	=95	=95
2r	.	2F#mm	.	voice	.	271.335	F#:min7
8r	.	4AM	.	voice	.	272.789	A:maj
16c#	Ro-	.	.	.	.	.	.
16c#	-cky	.	.	.	.	.	.
8c#	Moun-	4BM	.	voice	.	273.516	B:sus4(b7)
8B	-tain	.	.	.	.	.	.
=96	=96	=96	=96	=96	=96	=96	=96
4B	High	1EM	.	voice	C	274.242	E:maj
[2.b	_	.	.	.	.	.	.
=97	=97	=97	=97	=97	=97	=97	=97
2b]	_	2F#mm	.	voice	.	277.15	F#:min7
2r	.	4AM	.	voice	.	278.603	A:maj
.	.	4BM	.	voice	.	279.33	B:sus4(b7)
r;	.	1r;	.	r	.	281.147	N.C.
r;	.	1r;	.	r	.	286.188	N.C.
*-	*-	*-	*-	*-	*-	*-	*-
!!!BillboardChartDate: 1972/12/23
!!!BillboardPeak: 9
!!!BillboardWeeksOnChart: 19
!!!COC: John Denver
!!!ENC: Nathaniel Condit-Schultz
!!!EST: Awating manual error checking and editing.
!!!OTL: Rocky Mountain High
!!!RDF**chordsym: original McGill chord annotation + (implied pitch class set, with bass pitch in first position)
!!!RDF**harmony: **recip + pitch class of root + harmonic quality
!!!RDF**leadinstrument: original McGill primary instrumentation annotation
!!!RDF**phrase: newline = linebreak in original McGill transcription
!!!RDF**timestamp: McGill audio timestamp in seconds
!!!RDT: 2017/01/12/
!!!SampleActualRank: 46
!!!SampleID#: 0720
!!!SampleTargetRank: 47
